svgs/light/fireplace.svg

<svg xmlns="http://www.w3.org/2000/svg" viewBox="0 0 640 512"><!-- Font Awesome Pro 6.0.0-alpha2 by @fontawesome - https://fontawesome.com License - https://fontawesome.com/license (Commercial License) --><path d="M342.25 311.625C328.25 292.75 310.875 273.75 291.25 256C240.75 301.625 204.75 361 204.75 396.75C204.75 460.375 256.375 512 320 512S435.25 460.375 435.25 396.75C435.25 370.25 408.5 315.25 371.25 281.625C360.5 291.25 350.75 301.375 342.25 311.625ZM320 480C274.125 480 236.75 442.75 236.75 396.75C236.75 377.25 257.25 337.875 291.25 300.75C300.625 310.625 309.125 320.75 316.625 330.75L340.75 363.125L366.75 332.25L370.375 328C390.875 354.875 403.25 385.375 403.25 396.75C403.25 442.75 365.875 480 320 480ZM608 0H32C14.4 0 0 14.4 0 32V96C0 113.6 14.4 128 32 128H608C625.6 128 640 113.6 640 96V32C640 14.4 625.6 0 608 0ZM608 96H32V32H608V96ZM592 160C583.164 160 576 167.162 576 176V480H512V352C512 246.125 425.875 160 320 160S128 246.125 128 352V480H64V176C64 167.162 56.836 160 48 160C39.162 160 32 167.162 32 176V480C32 497.75 46.25 512 64 512H128C145.75 512 160 497.75 160 480V352C160 263.625 231.625 192 320 192S480 263.625 480 352V480C480 497.75 494.25 512 512 512H576C593.75 512 608 497.75 608 480V176C608 167.162 600.838 160 592 160Z"/></svg>

<svg xmlns="http://www.w3.org/2000/svg" viewBox="0 0 640 512"><!--! Font Awesome Pro 6.0.0-alpha3 by @fontawesome - https://fontawesome.com License - https://fontawesome.com/license (Commercial License) --><path d="M342.3 311.6C328.3 292.8 310.9 273.8 291.3 256c-50.5 45.63-86.5 105-86.5 140.8C204.8 460.4 256.4 512 320 512s115.3-51.63 115.3-115.3c0-26.5-26.75-81.5-64-115.1C360.5 291.3 350.8 301.4 342.3 311.6zM320 480c-45.88 0-83.25-37.25-83.25-83.25c0-19.5 20.5-58.88 54.5-96c9.375 9.875 17.88 20 25.38 30l24.12 32.38L370.4 328c20.5 26.88 32.88 57.38 32.88 68.75C403.3 442.8 365.9 480 320 480zM608 0H32C14.4 0 0 14.4 0 32v64c0 17.6 14.4 32 32 32h576c17.6 0 32-14.4 32-32V32C640 14.4 625.6 0 608 0zM608 96H32V32h576V96zM592 160C583.2 160 576 167.2 576 176V480h-64v-128c0-105.9-86.13-192-192-192s-192 86.13-192 192v128H64V176C64 167.2 56.84 160 48 160C39.16 160 32 167.2 32 176V480c0 17.75 14.25 32 32 32h64c17.75 0 32-14.25 32-32v-128c0-88.38 71.63-160 160-160s160 71.63 160 160v128c0 17.75 14.25 32 32 32h64c17.75 0 32-14.25 32-32V176C608 167.2 600.8 160 592 160z"/></svg>
